Newaita-dark/apps/32/ruby.svg

<svg height="32pt" viewBox="0 0 32 32" width="32pt" xmlns="http://www.w3.org/2000/svg" xmlns:xlink="http://www.w3.org/1999/xlink"><linearGradient id="a"><stop offset="0" stop-opacity=".313725"/><stop offset=".222222" stop-opacity=".27451"/><stop offset="1" stop-opacity="0"/></linearGradient><radialGradient id="b" cx="450.90894" cy="189.57936" gradientTransform="matrix(.00000013 -.0781325 -.105479 -.0000001 35.62502 63.632083)" gradientUnits="userSpaceOnUse" r="21.166656" xlink:href="#a"/><radialGradient id="c" cx="450.90894" cy="189.57936" gradientTransform="matrix(-.00000013 .0781325 .105479 .0000001 -3.87199 -7.49073)" gradientUnits="userSpaceOnUse" r="21.166656" xlink:href="#a"/><radialGradient id="d" cx="450.90894" cy="189.57936" gradientTransform="matrix(-.00000013 -.0781325 .105479 -.0000001 -3.87199 63.632083)" gradientUnits="userSpaceOnUse" r="21.166656" xlink:href="#a"/><radialGradient id="e" cx="450.90894" cy="189.57936" gradientTransform="matrix(.00000013 .0781325 -.105479 .0000001 35.625019 -7.49073)" gradientUnits="userSpaceOnUse" r="21.166656" xlink:href="#a"/><linearGradient id="f"><stop offset="0" stop-color="#e57373"/><stop offset="1" stop-color="#ef9a9a"/></linearGradient><linearGradient id="g" gradientUnits="userSpaceOnUse" x1="7.93824" x2="7.93824" xlink:href="#f" y1="28.0338647916" y2="2.89610363394"/><linearGradient id="h"><stop offset="0" stop-color="#ef5350"/><stop offset="1" stop-color="#e57373"/></linearGradient><linearGradient id="i" gradientUnits="userSpaceOnUse" x1="13.2304" x2="13.2304" xlink:href="#h" y1="28.0338647916" y2="2.89610363394"/><linearGradient id="j"><stop offset="0" stop-color="#f44336"/><stop offset="1" stop-color="#ef5350"/></linearGradient><linearGradient id="k" gradientUnits="userSpaceOnUse" x1="15.87648" x2="15.87648" xlink:href="#j" y1="28.0338647916" y2="2.89610346856"/><linearGradient id="l" gradientUnits="userSpaceOnUse" x1="21.16864" x2="21.16864" xlink:href="#h" y1="28.0338647916" y2="2.89610363394"/><linearGradient id="m" gradientUnits="userSpaceOnUse" x1="25.13776" x2="25.13776" xlink:href="#f" y1="28.0338647916" y2="2.89610363394"/><linearGradient id="n" gradientUnits="userSpaceOnUse" x1="6.6152" x2="6.6152" xlink:href="#j" y1="28.0338647916" y2="2.89610363394"/><linearGradient id="o" gradientUnits="userSpaceOnUse" x1="15.87648" x2="15.87648" xlink:href="#h" y1="28.0338647916" y2="2.89610346856"/><linearGradient id="p" gradientUnits="userSpaceOnUse" x1="22.49168" x2="22.49168" xlink:href="#j" y1="28.0338647916" y2="2.89610363394"/><path d="m15.875 28.070312h1.984375v-1.324218h-1.984375zm0 0" fill="url(#b)"/><path d="m15.875 28.070312h-1.984375v1.324219h1.984375zm0 0" fill="url(#c)"/><path d="m15.875 28.070312h-1.984375v-1.324218h1.984375zm0 0" fill="url(#d)"/><path d="m15.875 28.070312h1.984375v1.324219h-1.984375zm0 0" fill="url(#e)"/><path d="m7.226562 3.222656c-.148437.128906-.269531.289063-.347656.476563l-3.96875 9.261719c-.074218.167968-.109375.34375-.109375.519531h8.230469zm0 0" fill="url(#g)"/><path d="m15.863281 2.902344h-7.777343c-.320313 0-.625.117187-.859376.320312l3.800782 10.246094zm0 0" fill="url(#i)"/><path d="m15.863281 2.902344-4.835937 10.566406.003906.011719h9.695312l-4.835937-10.578125zm0 0" fill="url(#k)"/><path d="m24.820312 3.21875c-.234374-.199219-.535156-.316406-.855468-.316406h-8.074219l4.835937 10.578125h.042969zm0 0" fill="url(#l)"/><path d="m24.820312 3.21875-4.050781 10.261719h8.480469c0-.175781-.035156-.351563-.105469-.519531l-3.96875-9.261719c-.082031-.1875-.207031-.351563-.355469-.480469zm0 0" fill="url(#m)"/><path d="m11.023438 13.480469h-8.371094c0 .320312.117187.632812.339844.882812l11.90625 13.226563c.261718.292968.617187.4375.976562.4375zm0 0" fill="url(#n)"/><path d="m11.023438 13.480469 4.851562 14.546875h.003906l4.847656-14.546875zm0 0" fill="url(#o)"/><path d="m20.726562 13.480469-4.847656 14.546875c.359375 0 .714844-.144532.976563-.4375l11.90625-13.226563c.222656-.25.339843-.5625.339843-.882812zm0 0" fill="url(#p)"/><path d="m8.085938 2.902344c-.320313 0-.625.117187-.859376.320312-.148437.128906-.269531.289063-.347656.476563l-3.96875 9.261719c-.074218.167968-.109375.34375-.109375.519531h-.148437c0 .109375.015625.222656.042968.328125h.105469c0-.175782.035157-.351563.109375-.519532l3.96875-9.261718c.078125-.1875.199219-.347656.347656-.476563.234376-.203125.539063-.320312.859376-.320312h15.878906c.320312 0 .621094.117187.855468.316406.148438.128906.273438.292969.355469.480469l3.96875 9.261718c.027344.0625.046875.125.0625.191407h.042969c0-.175781-.035156-.351563-.105469-.519531l-3.96875-9.261719c-.082031-.1875-.207031-.351563-.355469-.480469-.234374-.199219-.535156-.316406-.855468-.316406zm0 0" fill="#fff" fill-opacity=".392157"/><path d="m2.652344 13.480469c0 .320312.117187.632812.339844.882812l11.90625 13.226563c.261718.292968.617187.4375.976562.4375h.003906c.359375 0 .714844-.144532.976563-.4375l11.90625-13.226563c.222656-.25.339843-.5625.339843-.882812h-.070312c-.054688.167969-.144531.324219-.269531.460937l-11.90625 13.230469c-.261719.292969-.617188.4375-.976563.4375h-.003906c-.359375 0-.714844-.144531-.976562-.4375l-11.90625-13.230469c-.125-.136718-.214844-.292968-.269532-.460937zm0 0" fill-opacity=".235294"/><path d="m8.085938 2.808594c-.34375 0-.667969.125-.917969.34375-.160157.136718-.289063.308594-.375.511718l-3.972657 9.261719c-.0625.148438-.097656.304688-.109374.460938h-.058594c-.050782 0-.09375.042969-.09375.09375 0 .34375.125.679687.363281.945312l11.90625 13.230469c.277344.308594.664063.464844 1.046875.464844h.003906c.382813 0 .765625-.15625 1.046875-.464844l11.90625-13.230469c.214844-.242187.339844-.542969.359375-.851562h.058594c.050781 0 .09375-.042969.09375-.09375 0-.1875-.039062-.375-.113281-.554688l-3.96875-9.261719c-.089844-.203124-.222657-.378906-.382813-.515624-.25-.214844-.570312-.339844-.914062-.339844zm0 .1875h7.632812l-2.953125 6.445312-1.730469 3.78125-3.695312-9.96875c.210937-.164062.46875-.257812.746094-.257812zm7.949218 0h7.929688c.273437 0 .53125.09375.742187.253906l-.066406.167969-3.898437 9.871093zm-.160156.105468 4.707031 10.285157h-9.414062l.460937-1.011719zm8.980469.28125c.097656.101563.175781.222657.234375.355469l3.96875 9.261719c.050781.125.082031.253906.09375.386719h-8.246094zm-17.667969.007813 3.707031 9.996094h-7.996093c.011718-.132813.042968-.261719.097656-.386719l3.96875-9.261719c.054687-.132812.132812-.246093.222656-.347656zm-4.4375 10.183594h8.207031l2.386719 7.160156 2.398438 7.191406c-.289063-.03125-.5625-.164062-.773438-.398437l-11.910156-13.230469c-.183594-.203125-.289063-.457031-.308594-.722656zm8.40625 0h9.441406l-4.722656 14.164062zm9.640625 0h8.207031c-.023437.265625-.125.519531-.3125.722656l-11.90625 13.230469c-.210937.234375-.488281.367187-.773437.398437zm0 0" fill="#212121"/></svg>

<?xml version="1.0" encoding="UTF-8"?>
<svg xmlns="http://www.w3.org/2000/svg" xmlns:xlink="http://www.w3.org/1999/xlink" width="32pt" height="32pt" viewBox="0 0 32 32" version="1.1">
<defs>
<radialGradient id="radial0" gradientUnits="userSpaceOnUse" cx="450.90894" cy="189.57936" fx="450.90894" fy="189.57936" r="21.166656" gradientTransform="matrix(0.000000130628,-0.0781325,-0.105479,-0.000000101539,35.62502,63.632083)">
<stop offset="0" style="stop-color:rgb(0%,0%,0%);stop-opacity:0.313725;"/>
<stop offset="0.222222" style="stop-color:rgb(0%,0%,0%);stop-opacity:0.27451;"/>
<stop offset="1" style="stop-color:rgb(0%,0%,0%);stop-opacity:0;"/>
</radialGradient>
<radialGradient id="radial1" gradientUnits="userSpaceOnUse" cx="450.90894" cy="189.57936" fx="450.90894" fy="189.57936" r="21.166656" gradientTransform="matrix(-0.000000130628,0.0781325,0.105479,0.000000101539,-3.87199,-7.49073)">
<stop offset="0" style="stop-color:rgb(0%,0%,0%);stop-opacity:0.313725;"/>
<stop offset="0.222222" style="stop-color:rgb(0%,0%,0%);stop-opacity:0.27451;"/>
<stop offset="1" style="stop-color:rgb(0%,0%,0%);stop-opacity:0;"/>
</radialGradient>
<radialGradient id="radial2" gradientUnits="userSpaceOnUse" cx="450.90894" cy="189.57936" fx="450.90894" fy="189.57936" r="21.166656" gradientTransform="matrix(-0.000000130628,-0.0781325,0.105479,-0.000000101539,-3.87199,63.632083)">
<stop offset="0" style="stop-color:rgb(0%,0%,0%);stop-opacity:0.313725;"/>
<stop offset="0.222222" style="stop-color:rgb(0%,0%,0%);stop-opacity:0.27451;"/>
<stop offset="1" style="stop-color:rgb(0%,0%,0%);stop-opacity:0;"/>
</radialGradient>
<radialGradient id="radial3" gradientUnits="userSpaceOnUse" cx="450.90894" cy="189.57936" fx="450.90894" fy="189.57936" r="21.166656" gradientTransform="matrix(0.000000130628,0.0781325,-0.105479,0.000000101539,35.625019,-7.49073)">
<stop offset="0" style="stop-color:rgb(0%,0%,0%);stop-opacity:0.313725;"/>
<stop offset="0.222222" style="stop-color:rgb(0%,0%,0%);stop-opacity:0.27451;"/>
<stop offset="1" style="stop-color:rgb(0%,0%,0%);stop-opacity:0;"/>
</radialGradient>
<linearGradient id="linear0" gradientUnits="userSpaceOnUse" x1="480" y1="1695.1182" x2="480" y2="175.11813" gradientTransform="matrix(0.016538,0,0,0.016538,0,0)">
<stop offset="0" style="stop-color:rgb(89.803922%,45.098039%,45.098039%);stop-opacity:1;"/>
<stop offset="1" style="stop-color:rgb(93.72549%,60.392157%,60.392157%);stop-opacity:1;"/>
</linearGradient>
<linearGradient id="linear1" gradientUnits="userSpaceOnUse" x1="800" y1="1695.1182" x2="800" y2="175.11813" gradientTransform="matrix(0.016538,0,0,0.016538,0,0)">
<stop offset="0" style="stop-color:rgb(93.72549%,32.54902%,31.372549%);stop-opacity:1;"/>
<stop offset="1" style="stop-color:rgb(89.803922%,45.098039%,45.098039%);stop-opacity:1;"/>
</linearGradient>
<linearGradient id="linear2" gradientUnits="userSpaceOnUse" x1="960" y1="1695.1182" x2="960" y2="175.11812" gradientTransform="matrix(0.016538,0,0,0.016538,0,0)">
<stop offset="0" style="stop-color:rgb(95.686275%,26.27451%,21.176471%);stop-opacity:1;"/>
<stop offset="1" style="stop-color:rgb(93.72549%,32.54902%,31.372549%);stop-opacity:1;"/>
</linearGradient>
<linearGradient id="linear3" gradientUnits="userSpaceOnUse" x1="1280" y1="1695.1182" x2="1280" y2="175.11813" gradientTransform="matrix(0.016538,0,0,0.016538,0,0)">
<stop offset="0" style="stop-color:rgb(93.72549%,32.54902%,31.372549%);stop-opacity:1;"/>
<stop offset="1" style="stop-color:rgb(89.803922%,45.098039%,45.098039%);stop-opacity:1;"/>
</linearGradient>
<linearGradient id="linear4" gradientUnits="userSpaceOnUse" x1="1520" y1="1695.1182" x2="1520" y2="175.11813" gradientTransform="matrix(0.016538,0,0,0.016538,0,0)">
<stop offset="0" style="stop-color:rgb(89.803922%,45.098039%,45.098039%);stop-opacity:1;"/>
<stop offset="1" style="stop-color:rgb(93.72549%,60.392157%,60.392157%);stop-opacity:1;"/>
</linearGradient>
<linearGradient id="linear5" gradientUnits="userSpaceOnUse" x1="400" y1="1695.1182" x2="400" y2="175.11813" gradientTransform="matrix(0.016538,0,0,0.016538,0,0)">
<stop offset="0" style="stop-color:rgb(95.686275%,26.27451%,21.176471%);stop-opacity:1;"/>
<stop offset="1" style="stop-color:rgb(93.72549%,32.54902%,31.372549%);stop-opacity:1;"/>
</linearGradient>
<linearGradient id="linear6" gradientUnits="userSpaceOnUse" x1="960" y1="1695.1182" x2="960" y2="175.11812" gradientTransform="matrix(0.016538,0,0,0.016538,0,0)">
<stop offset="0" style="stop-color:rgb(93.72549%,32.54902%,31.372549%);stop-opacity:1;"/>
<stop offset="1" style="stop-color:rgb(89.803922%,45.098039%,45.098039%);stop-opacity:1;"/>
</linearGradient>
<linearGradient id="linear7" gradientUnits="userSpaceOnUse" x1="1360" y1="1695.1182" x2="1360" y2="175.11813" gradientTransform="matrix(0.016538,0,0,0.016538,0,0)">
<stop offset="0" style="stop-color:rgb(95.686275%,26.27451%,21.176471%);stop-opacity:1;"/>
<stop offset="1" style="stop-color:rgb(93.72549%,32.54902%,31.372549%);stop-opacity:1;"/>
</linearGradient>
</defs>
<g id="surface1">
<path style=" stroke:none;fill-rule:nonzero;fill:url(#radial0);" d="M 15.875 28.070312 L 17.859375 28.070312 L 17.859375 26.746094 L 15.875 26.746094 Z M 15.875 28.070312 "/>
<path style=" stroke:none;fill-rule:nonzero;fill:url(#radial1);" d="M 15.875 28.070312 L 13.890625 28.070312 L 13.890625 29.394531 L 15.875 29.394531 Z M 15.875 28.070312 "/>
<path style=" stroke:none;fill-rule:nonzero;fill:url(#radial2);" d="M 15.875 28.070312 L 13.890625 28.070312 L 13.890625 26.746094 L 15.875 26.746094 Z M 15.875 28.070312 "/>
<path style=" stroke:none;fill-rule:nonzero;fill:url(#radial3);" d="M 15.875 28.070312 L 17.859375 28.070312 L 17.859375 29.394531 L 15.875 29.394531 Z M 15.875 28.070312 "/>
<path style=" stroke:none;fill-rule:nonzero;fill:url(#linear0);" d="M 7.226562 3.222656 C 7.078125 3.351562 6.957031 3.511719 6.878906 3.699219 L 2.910156 12.960938 C 2.835938 13.128906 2.800781 13.304688 2.800781 13.480469 L 11.03125 13.480469 Z M 7.226562 3.222656 "/>
<path style=" stroke:none;fill-rule:nonzero;fill:url(#linear1);" d="M 15.863281 2.902344 L 8.085938 2.902344 C 7.765625 2.902344 7.460938 3.019531 7.226562 3.222656 L 11.027344 13.46875 Z M 15.863281 2.902344 "/>
<path style=" stroke:none;fill-rule:nonzero;fill:url(#linear2);" d="M 15.863281 2.902344 L 11.027344 13.46875 L 11.03125 13.480469 L 20.726562 13.480469 L 15.890625 2.902344 Z M 15.863281 2.902344 "/>
<path style=" stroke:none;fill-rule:nonzero;fill:url(#linear3);" d="M 24.820312 3.21875 C 24.585938 3.019531 24.285156 2.902344 23.964844 2.902344 L 15.890625 2.902344 L 20.726562 13.480469 L 20.769531 13.480469 Z M 24.820312 3.21875 "/>
<path style=" stroke:none;fill-rule:nonzero;fill:url(#linear4);" d="M 24.820312 3.21875 L 20.769531 13.480469 L 29.25 13.480469 C 29.25 13.304688 29.214844 13.128906 29.144531 12.960938 L 25.175781 3.699219 C 25.09375 3.511719 24.96875 3.347656 24.820312 3.21875 Z M 24.820312 3.21875 "/>
<path style=" stroke:none;fill-rule:nonzero;fill:url(#linear5);" d="M 11.023438 13.480469 L 2.652344 13.480469 C 2.652344 13.800781 2.769531 14.113281 2.992188 14.363281 L 14.898438 27.589844 C 15.160156 27.882812 15.515625 28.027344 15.875 28.027344 Z M 11.023438 13.480469 "/>
<path style=" stroke:none;fill-rule:nonzero;fill:url(#linear6);" d="M 11.023438 13.480469 L 15.875 28.027344 C 15.875 28.027344 15.878906 28.027344 15.878906 28.027344 L 20.726562 13.480469 Z M 11.023438 13.480469 "/>
<path style=" stroke:none;fill-rule:nonzero;fill:url(#linear7);" d="M 20.726562 13.480469 L 15.878906 28.027344 C 16.238281 28.027344 16.59375 27.882812 16.855469 27.589844 L 28.761719 14.363281 C 28.984375 14.113281 29.101562 13.800781 29.101562 13.480469 Z M 20.726562 13.480469 "/>
<path style=" stroke:none;fill-rule:nonzero;fill:rgb(100%,100%,100%);fill-opacity:0.392157;" d="M 8.085938 2.902344 C 7.765625 2.902344 7.460938 3.019531 7.226562 3.222656 C 7.078125 3.351562 6.957031 3.511719 6.878906 3.699219 L 2.910156 12.960938 C 2.835938 13.128906 2.800781 13.304688 2.800781 13.480469 L 2.652344 13.480469 C 2.652344 13.589844 2.667969 13.703125 2.695312 13.808594 L 2.800781 13.808594 C 2.800781 13.632812 2.835938 13.457031 2.910156 13.289062 L 6.878906 4.027344 C 6.957031 3.839844 7.078125 3.679688 7.226562 3.550781 C 7.460938 3.347656 7.765625 3.230469 8.085938 3.230469 L 23.964844 3.230469 C 24.285156 3.230469 24.585938 3.347656 24.820312 3.546875 C 24.96875 3.675781 25.09375 3.839844 25.175781 4.027344 L 29.144531 13.289062 C 29.171875 13.351562 29.191406 13.414062 29.207031 13.480469 L 29.25 13.480469 C 29.25 13.304688 29.214844 13.128906 29.144531 12.960938 L 25.175781 3.699219 C 25.09375 3.511719 24.96875 3.347656 24.820312 3.21875 C 24.585938 3.019531 24.285156 2.902344 23.964844 2.902344 Z M 8.085938 2.902344 "/>
<path style=" stroke:none;fill-rule:nonzero;fill:rgb(0%,0%,0%);fill-opacity:0.235294;" d="M 2.652344 13.480469 C 2.652344 13.800781 2.769531 14.113281 2.992188 14.363281 L 14.898438 27.589844 C 15.160156 27.882812 15.515625 28.027344 15.875 28.027344 C 15.875 28.027344 15.878906 28.027344 15.878906 28.027344 C 16.238281 28.027344 16.59375 27.882812 16.855469 27.589844 L 28.761719 14.363281 C 28.984375 14.113281 29.101562 13.800781 29.101562 13.480469 L 29.03125 13.480469 C 28.976562 13.648438 28.886719 13.804688 28.761719 13.941406 L 16.855469 27.171875 C 16.59375 27.464844 16.238281 27.609375 15.878906 27.609375 C 15.878906 27.609375 15.875 27.609375 15.875 27.609375 C 15.515625 27.609375 15.160156 27.464844 14.898438 27.171875 L 2.992188 13.941406 C 2.867188 13.804688 2.777344 13.648438 2.722656 13.480469 Z M 2.652344 13.480469 "/>
<path style=" stroke:none;fill-rule:nonzero;fill:rgb(12.941176%,12.941176%,12.941176%);fill-opacity:1;" d="M 8.085938 2.808594 C 7.742188 2.808594 7.417969 2.933594 7.167969 3.152344 C 7.007812 3.289062 6.878906 3.460938 6.792969 3.664062 L 2.820312 12.925781 C 2.757812 13.074219 2.722656 13.230469 2.710938 13.386719 L 2.652344 13.386719 C 2.601562 13.386719 2.558594 13.429688 2.558594 13.480469 C 2.558594 13.824219 2.683594 14.160156 2.921875 14.425781 L 14.828125 27.65625 C 15.105469 27.964844 15.492188 28.121094 15.875 28.121094 C 15.867188 28.121094 15.867188 28.121094 15.878906 28.121094 C 16.261719 28.121094 16.644531 27.964844 16.925781 27.65625 L 28.832031 14.425781 C 29.046875 14.183594 29.171875 13.882812 29.191406 13.574219 L 29.25 13.574219 C 29.300781 13.574219 29.34375 13.53125 29.34375 13.480469 C 29.34375 13.292969 29.304688 13.105469 29.230469 12.925781 L 25.261719 3.664062 C 25.171875 3.460938 25.039062 3.285156 24.878906 3.148438 C 24.628906 2.933594 24.308594 2.808594 23.964844 2.808594 Z M 8.085938 2.996094 L 15.71875 2.996094 L 12.765625 9.441406 L 11.035156 13.222656 L 7.339844 3.253906 C 7.550781 3.089844 7.808594 2.996094 8.085938 2.996094 Z M 16.035156 2.996094 L 23.964844 2.996094 C 24.238281 2.996094 24.496094 3.089844 24.707031 3.25 L 24.640625 3.417969 L 20.742188 13.289062 Z M 15.875 3.101562 L 20.582031 13.386719 L 11.167969 13.386719 L 11.628906 12.375 Z M 24.855469 3.382812 C 24.953125 3.484375 25.03125 3.605469 25.089844 3.738281 L 29.058594 13 C 29.109375 13.125 29.140625 13.253906 29.152344 13.386719 L 20.90625 13.386719 Z M 7.1875 3.390625 L 10.894531 13.386719 L 2.898438 13.386719 C 2.910156 13.253906 2.941406 13.125 2.996094 13 L 6.964844 3.738281 C 7.019531 3.605469 7.097656 3.492188 7.1875 3.390625 Z M 2.75 13.574219 L 10.957031 13.574219 L 13.34375 20.734375 L 15.742188 27.925781 C 15.453125 27.894531 15.179688 27.761719 14.96875 27.527344 L 3.058594 14.296875 C 2.875 14.09375 2.769531 13.839844 2.75 13.574219 Z M 11.15625 13.574219 L 20.597656 13.574219 L 15.875 27.738281 Z M 20.796875 13.574219 L 29.003906 13.574219 C 28.980469 13.839844 28.878906 14.09375 28.691406 14.296875 L 16.785156 27.527344 C 16.574219 27.761719 16.296875 27.894531 16.011719 27.925781 Z M 20.796875 13.574219 "/>
</g>
</svg>
